svgs/thin/clapperboard-play.svg

<svg xmlns="http://www.w3.org/2000/svg" viewBox="0 0 512 512"><!--! Font Awesome Pro 6.3.0 by @fontawesome - https://fontawesome.com License - https://fontawesome.com/license (Commercial License) Copyright 2023 Fonticons, Inc. --><path d="M205.6 412.5C209.6 414.8 214.1 416 218.7 416c5.143 0 10.09-1.462 14.38-4.276l106.6-68.94C347.4 337.8 352 329.3 352 319.1s-4.614-17.81-12.35-22.8L233 228.3C228.8 225.5 223.8 224 218.7 224C214.1 224 209.5 225.2 205.6 227.5C197.2 232.3 192 241.3 192 251v137.9C192 398.7 197.2 407.7 205.6 412.5zM208 251c0-4.01 2.104-7.705 5.5-9.656C215.1 240.5 216.9 240 218.7 240c1.967 0 3.926 .5547 5.629 1.674l106.7 68.97C334.1 312.7 336 316.2 336 319.1s-1.896 7.338-5.021 9.354l-106.7 68.97C222.6 399.4 220.6 400 218.7 400c-1.77 0-3.562-.4629-5.166-1.379C210.1 396.7 208 392.1 208 388.1V251zM448 32H64C28.65 32 0 60.65 0 96v320c0 35.35 28.65 64 64 64h384c35.35 0 64-28.65 64-64V96C512 60.65 483.3 32 448 32zM448 48c3.883 0 7.607 .5879 11.22 1.463L348.7 160H219.3l112-112H448zM308.7 48l-112 112H67.31l112-112H308.7zM16 96c0-26.47 21.53-48 48-48h92.69l-112 112H16V96zM496 416c0 26.47-21.53 48-48 48H64c-26.47 0-48-21.53-48-48V176h480V416zM496 160h-124.7l103.7-103.7C487.7 64.99 496 79.53 496 96V160z"/></svg>

<svg xmlns="http://www.w3.org/2000/svg" viewBox="0 0 512 512"><!-- Font Awesome Pro 6.0.0-alpha2 by @fontawesome - https://fontawesome.com License - https://fontawesome.com/license (Commercial License) --><path d="M205.531 412.496C209.557 414.795 214.088 416 218.666 416C223.809 416 228.797 414.512 233.088 411.697L339.666 342.785C347.383 337.809 352 329.285 352 319.996S347.383 302.184 339.65 297.195L233 228.238C228.811 225.486 223.828 224 218.684 224C214.104 224 209.578 225.197 205.592 227.463C197.186 232.289 192 241.307 192 251.027V388.965C192 398.686 197.186 407.701 205.531 412.496ZM208 251.027C208 247.018 210.104 243.322 213.5 241.371C215.107 240.459 216.898 240 218.684 240C220.65 240 222.609 240.555 224.312 241.674L330.979 310.643C334.104 312.658 336 316.191 336 319.996S334.104 327.334 330.979 329.35L224.312 398.318C222.604 399.439 220.625 400 218.666 400C216.896 400 215.104 399.537 213.5 398.621C210.104 396.67 208 392.973 208 388.965V251.027ZM448 32H64C28.654 32 0 60.654 0 96V416C0 451.346 28.654 480 64 480H448C483.346 480 512 451.346 512 416V96C512 60.654 483.346 32 448 32ZM448 48C451.883 48 455.607 48.588 459.225 49.463L348.688 160H219.312L331.312 48H448ZM308.688 48L196.688 160H67.312L179.312 48H308.688ZM16 96C16 69.533 37.533 48 64 48H156.688L44.688 160H16V96ZM496 416C496 442.467 474.467 464 448 464H64C37.533 464 16 442.467 16 416V176H496V416ZM496 160H371.312L474.975 56.338C487.65 64.988 496 79.531 496 96V160Z"/></svg>
